target/22x22/mimetypes/text-x-readme.svg

<svg width="22" height="22" version="1" xmlns="http://www.w3.org/2000/svg">
 <path d="m4 1.5c-0.554 0-1 0.446-1 1v18c0 0.554 0.446 1 1 1h14c0.554 0 1-0.446 1-1v-13l-5.5-0.5-0.5-5.5z" style="opacity:.2"/>
 <path d="m4 1c-0.554 0-1 0.446-1 1v18c0 0.554 0.446 1 1 1h14c0.554 0 1-0.446 1-1v-13l-5.5-0.5-0.5-5.5z" style="fill:#e4e4e4"/>
 <path d="m4 1c-0.554 0-1 0.446-1 1v0.5c0-0.554 0.446-1 1-1h9l5.5 5.5h0.5l-6-6z" style="fill:#ffffff;opacity:.2"/>
 <path d="m13 1.5v5c0 0.5523 0.44772 1 1 1h5z" style="opacity:.2"/>
 <path d="m13 1v5c0 0.5523 0.44772 1 1 1h5z" style="fill:#fafafa"/>
 <path d="m10 9v6h2v-6zm0 8v2h2v-2z" style="fill:#d74c4c"/>
</svg>

<svg xmlns="http://www.w3.org/2000/svg" width="22" height="22" version="1">
 <path style="opacity:0.2" d="m 4,1.5 c -0.554,0 -1,0.446 -1,1 v 18 c 0,0.554 0.446,1 1,1 h 14 c 0.554,0 1,-0.446 1,-1 V 7.5 L 13.5,7 13,1.5 Z"/>
 <path style="fill:#e4e4e4" d="M 4,1 C 3.446,1 3,1.446 3,2 v 18 c 0,0.554 0.446,1 1,1 h 14 c 0.554,0 1,-0.446 1,-1 V 7 L 13.5,6.5 13,1 Z"/>
 <path style="opacity:0.2;fill:#ffffff" d="M 4,1 C 3.446,1 3,1.446 3,2 v 0.5 c 0,-0.554 0.446,-1 1,-1 h 9 L 18.5,7 H 19 L 13,1 Z"/>
 <path style="opacity:0.2" d="m 13,1.5 v 5 c 0,0.5523 0.44772,1 1,1 h 5 z"/>
 <path style="fill:#fafafa" d="m 13,1 v 5 c 0,0.5523 0.44772,1 1,1 h 5 z"/>
 <path style="fill:#d74c4c" d="m 10,10 v 5 h 2 v -5 z m 0,6 v 2 h 2 v -2 z"/>
</svg>
